X:73
T:T045- The Irish Blanket
S:McGlashan's Scots Measures, c 1778
Q:1/4=120
L:1/8
M:6/8
K:D
DED DED|DEDd3|ABc def|ged cBA|DED dFD|\
AFDB3|GBc dcB|GBG FED::ABA ABA|ABAf3|\
ef^g agf|efd cBA|ABA acA|ecA~B3|\
ABc dcB|ABG FED:|]

